!!!COM: Beethoven
!!!OTL: Zehn Variationen uber "la stessa, la stessissima" aus "Falstaff" von A. Salieri
!!!Variation: Variation 10 a
**function	**harm	**kern	**kern
*	*	*clefF4	*clefG2
*	*	*k[b-e-]	*k[b-e-]
*M3/8	*M3/8	*M3/8	*M3/8
*B-:	*B-:	*B-:	*B-:
8T	8V	8r	8f
=167	=167	=167	=167
*	*	*	*^
4.T	4.I	4BB- 4F 4B-	4d	(8fL
.	.	.	.	8b-)
.	.	8BB- 8F 8B-	8d	8b-'J
=168	=168	=168	=168	=168
.	.	.	.	q16cc
4.T	4.I	4BB- 4F 4B-	4d	(16b-LL
.	.	.	.	16a
.	.	.	.	16b-
.	.	.	.	16ccJ)
.	.	8BB- 8F 8B-	8d	8dd'J
=169	=169	=169	=169	=169
4.T	4.V7	4BB- 4E- 4F 4A	8e-	8b
.	.	.	[4e-	([4cc
.	.	8BB- 8E- 8F 8A	.	.
=170	=170	=170	=170	=170
4.T	4.V7	4BB- 4E- 4F 4A	8e-L]	8ccL]
.	.	.	8e-	8f)
.	.	8BB- 8E- 8F 8A	8e-J	8f'J
=171	=171	=171	=171	=171
4.T	4.V7	4BB- 4E- 4F 4A	4e-	(8fL
.	.	.	.	8cc)
.	.	8BB- 8E- 8F 8A	8e-	8cc'J
*	*	*	*v	*v
=172	=172	=172	=172
4.T	4.V7	4BB- 4E- 4F 4A	(16ddLL
.	.	.	16cc
.	.	.	16b
.	.	.	16ccJ)
.	.	8BB- 8E- 8F 8A	8ff'J
=173	=173	=173	=173
4.T	4.I	4BB- 4D 4F 4B-	8cc#
*	*	*	*^
.	.	.	([4d	[4dd
.	.	8BB- 8D 8F 8B-	.	.
=174	=174	=174	=174	=174
4.T	4.I	4BB- 4D 4F 4B-	8dL]	8dd]
.	.	.	8r	8b-)
.	.	8BB- 8D 8F 8B-	8r	8b-'J
*	*	*	*v	*v
=175	=175	=175	=175
.	.	.	q16cc
.	.	.	q16b-
.	.	.	q16a
4.T	4.IVc	4BB- 4E- 4G	(8b-L
.	.	.	8ee-J)
.	.	8BB- 8E- 8G	16r
.	.	.	16ee-'
=176	=176	=176	=176
.	.	.	q16ff
.	.	.	q16ee-
.	.	.	q16dd
4.T	4.IVc	4BB- 4E- 4G	(8ee-L
.	.	.	8ggJ)
.	.	8BB- 8E- 8G	16r
.	.	.	16gg'
=177	=177	=177	=177
.	.	.	q16gg
.	.	.	q16ff
.	.	.	q16ee
4.T	4.I	4BB- 4D 4F	(8ffL
.	.	.	8bb-J)
.	.	8BB- 8D 8F	16r
.	.	.	16bb-'
=178	=178	=178	=178
.	.	.	q16ccc
.	.	.	q16bb-
.	.	.	q16aa
4.T	4.I	4BB- 4D 4F	(8bb-L
.	.	.	8dddJ)
.	.	8BB- 8D 8F	16r
.	.	.	16ddd'
=179	=179	=179	=179
.	.	.	q8eee
4D	4V	4FF 4C 4F	8fff'
.	.	.	4ff
8D	8I	8BB- 8D 8F	.
=180	=180	=180	=180
.	.	.	q8eee
4D	4V	4FF 4C 4F	8fff'
.	.	.	4ff
8D	8I	8BB- 8D 8F	.
=181	=181	=181	=181
.	.	.	q8eee
4.D	4.V	8FF 8C 8F	8fff'
.	.	8r	(8.ffL
.	.	8r	.
.	.	.	16eeJk
=182	=182	=182	=182
4.D	4.V7	4.r	16ee-LL
.	.	.	16cc
.	.	.	16a
.	.	.	16f
.	.	.	16e-
.	.	.	16cJJ)
*-	*-	*-	*-
